X: 11650
T: Eileen O'Brien's
R: reel
M: 4/4
K: Dmajor
|:(3ABc|dA ~A2 BAFE|~D3F ADFA|dA ~A2 BABc|dBAF ~E3 F|
DA, ~A,2 DEFA|BA (3^GAB A2 Bc|dfed ~B3d|AFEF D2:|
|:(3ABc|~d2 Bd ABde|faef dcAB|~=c2 Gc Ecec|d=cAB cAGc|
Ad ~d2 fdde|efec dBAa|agec dcAF|GBAF D2:|

